assets/1. Faces/Persevering face/Color/persevering_face_color.svg

<svg width="100%" height="100%" viewBox="0 0 32 32" fill="none" xmlns="http://www.w3.org/2000/svg">
<g clip-path="url(#clip0_31_1666)">
<path d="M15.9989 29.9978C25.3333 29.9978 29.9978 23.7303 29.9978 15.9989C29.9978 8.26751 25.3333 2 15.9989 2C6.66443 2 2 8.26751 2 15.9989C2 23.7303 6.66443 29.9978 15.9989 29.9978Z" fill="url(#paint0_radial_31_1666)"/>
<path d="M15.9989 29.9978C25.3333 29.9978 29.9978 23.7303 29.9978 15.9989C29.9978 8.26751 25.3333 2 15.9989 2C6.66443 2 2 8.26751 2 15.9989C2 23.7303 6.66443 29.9978 15.9989 29.9978Z" fill="url(#paint1_radial_31_1666)"/>
<path d="M15.9989 29.9978C25.3333 29.9978 29.9978 23.7303 29.9978 15.9989C29.9978 8.26751 25.3333 2 15.9989 2C6.66443 2 2 8.26751 2 15.9989C2 23.7303 6.66443 29.9978 15.9989 29.9978Z" fill="url(#paint2_radial_31_1666)"/>
<path d="M15.9989 29.9978C25.3333 29.9978 29.9978 23.7303 29.9978 15.9989C29.9978 8.26751 25.3333 2 15.9989 2C6.66443 2 2 8.26751 2 15.9989C2 23.7303 6.66443 29.9978 15.9989 29.9978Z" fill="url(#paint3_radial_31_1666)" fill-opacity="0.6"/>
<path d="M15.9989 29.9978C25.3333 29.9978 29.9978 23.7303 29.9978 15.9989C29.9978 8.26751 25.3333 2 15.9989 2C6.66443 2 2 8.26751 2 15.9989C2 23.7303 6.66443 29.9978 15.9989 29.9978Z" fill="url(#paint4_radial_31_1666)"/>
<path d="M15.9989 29.9978C25.3333 29.9978 29.9978 23.7303 29.9978 15.9989C29.9978 8.26751 25.3333 2 15.9989 2C6.66443 2 2 8.26751 2 15.9989C2 23.7303 6.66443 29.9978 15.9989 29.9978Z" fill="url(#paint5_radial_31_1666)"/>
<path d="M15.9989 29.9978C25.3333 29.9978 29.9978 23.7303 29.9978 15.9989C29.9978 8.26751 25.3333 2 15.9989 2C6.66443 2 2 8.26751 2 15.9989C2 23.7303 6.66443 29.9978 15.9989 29.9978Z" fill="url(#paint6_radial_31_1666)"/>
<path d="M15.9989 29.9978C25.3333 29.9978 29.9978 23.7303 29.9978 15.9989C29.9978 8.26751 25.3333 2 15.9989 2C6.66443 2 2 8.26751 2 15.9989C2 23.7303 6.66443 29.9978 15.9989 29.9978Z" fill="url(#paint7_radial_31_1666)"/>
<g filter="url(#filter0_f_31_1666)">
<path d="M9.44746 19.3275C8.95348 19.5745 8.35281 19.3743 8.10582 18.8803C7.85883 18.3863 8.05906 17.7856 8.55303 17.5387L10.7595 16.4354H14.0002C13.9994 16.8133 13.7856 17.1585 13.4475 17.3275L9.44746 19.3275Z" fill="url(#paint8_radial_31_1666)" fill-opacity="0.6" style="mix-blend-mode:multiply"/>
<path d="M9.44746 13.5433C8.95348 13.2963 8.35281 13.4965 8.10582 13.9905C7.85883 14.4845 8.05906 15.0852 8.55303 15.3321L10.7595 16.4354H14.0002C13.9994 16.0575 13.7856 15.7123 13.4475 15.5433L9.44746 13.5433Z" fill="url(#paint9_radial_31_1666)" fill-opacity="0.6" style="mix-blend-mode:multiply"/>
</g>
<path d="M9.44746 18.8898C8.95348 19.1368 8.35281 18.9366 8.10582 18.4426C7.85883 17.9486 8.05906 17.3479 8.55303 17.101L10.7595 15.9977H14.0002C13.9994 16.3756 13.7856 16.7208 13.4475 16.8898L9.44746 18.8898Z" fill="url(#paint10_linear_31_1666)"/>
<path d="M9.44746 13.1058C8.95348 12.8588 8.35281 13.059 8.10582 13.553C7.85883 14.047 8.05906 14.6477 8.55303 14.8946L10.7595 15.9979H14.0002C13.9994 15.62 13.7856 15.2748 13.4475 15.1058L9.44746 13.1058Z" fill="url(#paint11_linear_31_1666)"/>
<g filter="url(#filter1_f_31_1666)">
<path d="M21.959 19.3275C22.453 19.5745 23.0537 19.3743 23.3007 18.8803C23.5477 18.3863 23.3474 17.7856 22.8535 17.5387L20.647 16.4354H17.4062C17.4071 16.8133 17.6209 17.1585 17.959 17.3275L21.959 19.3275Z" fill="url(#paint12_radial_31_1666)"/>
<path d="M21.959 13.5433C22.453 13.2963 23.0537 13.4965 23.3007 13.9905C23.5477 14.4845 23.3474 15.0852 22.8535 15.3321L20.647 16.4354H17.4062C17.4071 16.0575 17.6209 15.7123 17.959 15.5433L21.959 13.5433Z" fill="url(#paint13_radial_31_1666)"/>
</g>
<path d="M22.5372 18.8898C23.0311 19.1368 23.6318 18.9366 23.8788 18.4426C24.1258 17.9486 23.9256 17.3479 23.4316 17.101L21.2251 15.9977H17.9844C17.9852 16.3756 18.1991 16.7208 18.5372 16.8898L22.5372 18.8898Z" fill="url(#paint14_linear_31_1666)"/>
<path d="M22.5372 13.1058C23.0311 12.8588 23.6318 13.059 23.8788 13.553C24.1258 14.047 23.9256 14.6477 23.4316 14.8946L21.2251 15.9979H17.9844C17.9852 15.62 18.1991 15.2748 18.5372 15.1058L22.5372 13.1058Z" fill="url(#paint15_linear_31_1666)"/>
<path d="M10.5 7.5C10.5 7.5 10 10.5 6.5 10.5" stroke="url(#paint16_linear_31_1666)" stroke-width="1.25" stroke-linecap="round" stroke-linejoin="round"/>
<path d="M10.5 7.5C10.5 7.5 10 10.5 6.5 10.5" stroke="url(#paint17_radial_31_1666)" stroke-width="1.25" stroke-linecap="round" stroke-linejoin="round"/>
<path d="M21.5 7.5C21.5 7.5 22 10.5 25.5 10.5" stroke="url(#paint18_radial_31_1666)" stroke-width="1.25" stroke-linecap="round" stroke-linejoin="round"/>
<path d="M13 23C13 23 14 22 16 22C18 22 19 23 19 23" stroke="url(#paint19_linear_31_1666)" stroke-width="2" stroke-linecap="round"/>
</g>
<defs>
<filter id="filter0_f_31_1666" x="7.5" y="12.9375" width="7.00024" height="6.99585" filterUnits="userSpaceOnUse" color-interpolation-filters="sRGB">
<feFlood flood-opacity="0" result="BackgroundImageFix"/>
<feBlend mode="normal" in="SourceGraphic" in2="BackgroundImageFix" result="shape"/>
<feGaussianBlur stdDeviation="0.25" result="effect1_foregroundBlur_31_1666"/>
</filter>
<filter id="filter1_f_31_1666" x="16.9062" y="12.9375" width="7.00024" height="6.99585" filterUnits="userSpaceOnUse" color-interpolation-filters="sRGB">
<feFlood flood-opacity="0" result="BackgroundImageFix"/>
<feBlend mode="normal" in="SourceGraphic" in2="BackgroundImageFix" result="shape"/>
<feGaussianBlur stdDeviation="0.25" result="effect1_foregroundBlur_31_1666"/>
</filter>
<radialGradient id="paint0_radial_31_1666" cx="0" cy="0" r="1" gradientUnits="userSpaceOnUse" gradientTransform="translate(25.5 9) rotate(132.839) scale(37.5033)">
<stop stop-color="#FFF478"/>
<stop offset="0.474827" stop-color="#FFB02E"/>
<stop offset="1" stop-color="#F70A8D"/>
</radialGradient>
<radialGradient id="paint1_radial_31_1666" cx="0" cy="0" r="1" gradientUnits="userSpaceOnUse" gradientTransform="translate(25.5 9) rotate(131.878) scale(38.9487)">
<stop stop-color="#FFF478"/>
<stop offset="0.474827" stop-color="#FFB02E"/>
<stop offset="1" stop-color="#F70A8D"/>
</radialGradient>
<radialGradient id="paint2_radial_31_1666" cx="0" cy="0" r="1" gradientUnits="userSpaceOnUse" gradientTransform="translate(16 12.5) rotate(101.31) scale(17.8466 22.8581)">
<stop offset="0.787821" stop-color="#F59639" stop-opacity="0"/>
<stop offset="0.972509" stop-color="#FF7DCE"/>
</radialGradient>
<radialGradient id="paint3_radial_31_1666" cx="0" cy="0" r="1" gradientUnits="userSpaceOnUse" gradientTransform="translate(18 14) rotate(135) scale(41.0122)">
<stop offset="0.314853" stop-opacity="0"/>
<stop offset="1"/>
</radialGradient>
<radialGradient id="paint4_radial_31_1666" cx="0" cy="0" r="1" gradientUnits="userSpaceOnUse" gradientTransform="translate(16 17) rotate(77.692) scale(28.1469)">
<stop offset="0.507903" stop-color="#7D6133" stop-opacity="0"/>
<stop offset="1" stop-color="#715B32"/>
</radialGradient>
<radialGradient id="paint5_radial_31_1666" cx="0" cy="0" r="1" gradientUnits="userSpaceOnUse" gradientTransform="translate(16.5 16.5) rotate(55.7131) scale(13.3135 9.65032)">
<stop stop-color="#FFB849"/>
<stop offset="1" stop-color="#FFB847" stop-opacity="0"/>
</radialGradient>
<radialGradient id="paint6_radial_31_1666" cx="0" cy="0" r="1" gradientUnits="userSpaceOnUse" gradientTransform="translate(20.5 18) rotate(9.86581) scale(11.6726)">
<stop stop-color="#FFA64B"/>
<stop offset="0.900412" stop-color="#FFAE46" stop-opacity="0"/>
</radialGradient>
<radialGradient id="paint7_radial_31_1666" cx="0" cy="0" r="1" gradientUnits="userSpaceOnUse" gradientTransform="translate(17.5 15) rotate(43.9708) scale(59.0529)">
<stop offset="0.185425" stop-opacity="0"/>
<stop offset="1" stop-opacity="0.4"/>
</radialGradient>
<radialGradient id="paint8_radial_31_1666" cx="0" cy="0" r="1" gradientUnits="userSpaceOnUse" gradientTransform="translate(9.78128 13.4375) rotate(110.225) scale(7.59317 9.92428)">
<stop stop-color="#9F5E0F"/>
<stop offset="0.889024" stop-color="#9F5E0F" stop-opacity="0"/>
</radialGradient>
<radialGradient id="paint9_radial_31_1666" cx="0" cy="0" r="1" gradientUnits="userSpaceOnUse" gradientTransform="translate(9.78128 13.4375) rotate(110.225) scale(7.59317 9.92428)">
<stop stop-color="#9F5E0F"/>
<stop offset="0.889024" stop-color="#9F5E0F" stop-opacity="0"/>
</radialGradient>
<linearGradient id="paint10_linear_31_1666" x1="10.5784" y1="19.7321" x2="8.00003" y2="14.3883" gradientUnits="userSpaceOnUse">
<stop offset="0.24955" stop-color="#482641"/>
<stop offset="0.406361" stop-color="#503A4A"/>
<stop offset="0.511203" stop-color="#482641"/>
</linearGradient>
<linearGradient id="paint11_linear_31_1666" x1="8.85962" y1="16.1385" x2="11.2502" y2="11.451" gradientUnits="userSpaceOnUse">
<stop offset="0.24955" stop-color="#482641"/>
<stop offset="0.406361" stop-color="#503A4A"/>
<stop offset="0.511203" stop-color="#482641"/>
</linearGradient>
<radialGradient id="paint12_radial_31_1666" cx="0" cy="0" r="1" gradientUnits="userSpaceOnUse" gradientTransform="translate(26.8281 20.4375) rotate(-135.995) scale(13.3597 17.4611)">
<stop stop-color="#E9830A"/>
<stop offset="0.801655" stop-color="#F08B13" stop-opacity="0"/>
</radialGradient>
<radialGradient id="paint13_radial_31_1666" cx="0" cy="0" r="1" gradientUnits="userSpaceOnUse" gradientTransform="translate(26.8281 20.4375) rotate(-135.995) scale(13.3597 17.4611)">
<stop stop-color="#E9830A"/>
<stop offset="0.801655" stop-color="#F08B13" stop-opacity="0"/>
</radialGradient>
<linearGradient id="paint14_linear_31_1666" x1="21.4063" y1="19.7321" x2="23.9846" y2="14.3883" gradientUnits="userSpaceOnUse">
<stop offset="0.24955" stop-color="#482641"/>
<stop offset="0.406361" stop-color="#503A4A"/>
<stop offset="0.511203" stop-color="#482641"/>
</linearGradient>
<linearGradient id="paint15_linear_31_1666" x1="23.125" y1="16.1385" x2="20.7344" y2="11.451" gradientUnits="userSpaceOnUse">
<stop offset="0.24955" stop-color="#482641"/>
<stop offset="0.406361" stop-color="#503A4A"/>
<stop offset="0.511203" stop-color="#482641"/>
</linearGradient>
<linearGradient id="paint16_linear_31_1666" x1="9.5" y1="7" x2="9.5" y2="8.5" gradientUnits="userSpaceOnUse">
<stop offset="0.0299084" stop-color="#524049"/>
<stop offset="1" stop-color="#4A2C42"/>
</linearGradient>
<radialGradient id="paint17_radial_31_1666" cx="0" cy="0" r="1" gradientUnits="userSpaceOnUse" gradientTransform="translate(7 7) rotate(54.4623) scale(4.30116)">
<stop offset="0.541667" stop-color="#493032"/>
<stop offset="0.806723" stop-color="#5E445A"/>
<stop offset="0.955326" stop-color="#4A2C42"/>
</radialGradient>
<radialGradient id="paint18_radial_31_1666" cx="0" cy="0" r="1" gradientUnits="userSpaceOnUse" gradientTransform="translate(25 7) rotate(125.538) scale(4.30116)">
<stop stop-color="#C2B4B5"/>
<stop offset="0.887405" stop-color="#462B45"/>
<stop offset="1" stop-color="#4A2C42"/>
</radialGradient>
<linearGradient id="paint19_linear_31_1666" x1="16" y1="20" x2="16" y2="22" gradientUnits="userSpaceOnUse">
<stop stop-color="#4F3C43"/>
<stop offset="1" stop-color="#512756"/>
</linearGradient>
<clipPath id="clip0_31_1666">
<rect width="32" height="32" fill="white"/>
</clipPath>
</defs>
</svg>

<svg width="100%" height="100%" viewBox="0 0 32 32" xmlns="http://www.w3.org/2000/svg"><g clip-path="url(#a)"><path fill="url(#b)" d="M15.999 29.998c9.334 0 13.999-6.268 13.999-14 0-7.73-4.665-13.998-14-13.998C6.665 2 2 8.268 2 15.999s4.664 13.999 13.999 13.999"/><path fill="url(#c)" d="M15.999 29.998c9.334 0 13.999-6.268 13.999-14 0-7.73-4.665-13.998-14-13.998C6.665 2 2 8.268 2 15.999s4.664 13.999 13.999 13.999"/><path fill="url(#d)" d="M15.999 29.998c9.334 0 13.999-6.268 13.999-14 0-7.73-4.665-13.998-14-13.998C6.665 2 2 8.268 2 15.999s4.664 13.999 13.999 13.999"/><path fill="url(#e)" fill-opacity=".6" d="M15.999 29.998c9.334 0 13.999-6.268 13.999-14 0-7.73-4.665-13.998-14-13.998C6.665 2 2 8.268 2 15.999s4.664 13.999 13.999 13.999"/><path fill="url(#f)" d="M15.999 29.998c9.334 0 13.999-6.268 13.999-14 0-7.73-4.665-13.998-14-13.998C6.665 2 2 8.268 2 15.999s4.664 13.999 13.999 13.999"/><path fill="url(#g)" d="M15.999 29.998c9.334 0 13.999-6.268 13.999-14 0-7.73-4.665-13.998-14-13.998C6.665 2 2 8.268 2 15.999s4.664 13.999 13.999 13.999"/><path fill="url(#h)" d="M15.999 29.998c9.334 0 13.999-6.268 13.999-14 0-7.73-4.665-13.998-14-13.998C6.665 2 2 8.268 2 15.999s4.664 13.999 13.999 13.999"/><path fill="url(#i)" d="M15.999 29.998c9.334 0 13.999-6.268 13.999-14 0-7.73-4.665-13.998-14-13.998C6.665 2 2 8.268 2 15.999s4.664 13.999 13.999 13.999"/><g fill-opacity=".6" filter="url(#j)"><path fill="url(#k)" d="M9.447 19.328a1 1 0 1 1-.894-1.79l2.206-1.103H14a1 1 0 0 1-.553.893z" style="mix-blend-mode:multiply"/><path fill="url(#l)" d="M9.447 13.543a1 1 0 1 0-.894 1.79l2.206 1.102H14a1 1 0 0 0-.553-.892z" style="mix-blend-mode:multiply"/></g><path fill="url(#m)" d="M9.447 18.89a1 1 0 1 1-.894-1.789l2.206-1.103H14a1 1 0 0 1-.553.892z"/><path fill="url(#n)" d="M9.447 13.106a1 1 0 1 0-.894 1.789l2.206 1.103H14a1 1 0 0 0-.553-.892z"/><g filter="url(#o)"><path fill="url(#p)" d="M21.959 19.328a1 1 0 0 0 .895-1.79l-2.207-1.103h-3.24a1 1 0 0 0 .552.893z"/><path fill="url(#q)" d="M21.959 13.543a1 1 0 0 1 .895 1.79l-2.207 1.102h-3.24a1 1 0 0 1 .552-.892z"/></g><path fill="url(#r)" d="M22.537 18.89a1 1 0 1 0 .895-1.789l-2.207-1.103h-3.24a1 1 0 0 0 .552.892z"/><path fill="url(#s)" d="M22.537 13.106a1 1 0 1 1 .895 1.789l-2.207 1.103h-3.24a1 1 0 0 1 .552-.892z"/><path stroke="url(#t)" stroke-linecap="round" stroke-linejoin="round" stroke-width="1.25" d="M10.5 7.5s-.5 3-4 3"/><path stroke="url(#u)" stroke-linecap="round" stroke-linejoin="round" stroke-width="1.25" d="M10.5 7.5s-.5 3-4 3"/><path stroke="url(#v)" stroke-linecap="round" stroke-linejoin="round" stroke-width="1.25" d="M21.5 7.5s.5 3 4 3"/><path stroke="url(#w)" stroke-linecap="round" stroke-width="2" d="M13 23s1-1 3-1 3 1 3 1"/></g><defs><radialGradient id="b" cx="0" cy="0" r="1" gradientTransform="rotate(132.839 10.786 10.065)scale(37.5033)" gradientUnits="userSpaceOnUse"><stop stop-color="#FFF478"/><stop offset=".475" stop-color="#FFB02E"/><stop offset="1" stop-color="#F70A8D"/></radialGradient><radialGradient id="c" cx="0" cy="0" r="1" gradientTransform="rotate(131.878 10.74 10.193)scale(38.9487)" gradientUnits="userSpaceOnUse"><stop stop-color="#FFF478"/><stop offset=".475" stop-color="#FFB02E"/><stop offset="1" stop-color="#F70A8D"/></radialGradient><radialGradient id="d" cx="0" cy="0" r="1" gradientTransform="rotate(101.31 2.876 12.808)scale(17.8466 22.8581)" gradientUnits="userSpaceOnUse"><stop offset=".788" stop-color="#F59639" stop-opacity="0"/><stop offset=".973" stop-color="#FF7DCE"/></radialGradient><radialGradient id="e" cx="0" cy="0" r="1" gradientTransform="matrix(-29 29 -29 -29 18 14)" gradientUnits="userSpaceOnUse"><stop offset=".315" stop-opacity="0"/><stop offset="1"/></radialGradient><radialGradient id="f" cx="0" cy="0" r="1" gradientTransform="rotate(77.692 -2.555 18.434)scale(28.1469)" gradientUnits="userSpaceOnUse"><stop offset=".508" stop-color="#7D6133" stop-opacity="0"/><stop offset="1" stop-color="#715B32"/></radialGradient><radialGradient id="g" cx="0" cy="0" r="1" gradientTransform="rotate(55.713 -7.36 23.86)scale(13.3135 9.65032)" gradientUnits="userSpaceOnUse"><stop stop-color="#FFB849"/><stop offset="1" stop-color="#FFB847" stop-opacity="0"/></radialGradient><radialGradient id="h" cx="0" cy="0" r="1" gradientTransform="matrix(11.49998 2 -2 11.49998 20.5 18)" gradientUnits="userSpaceOnUse"><stop stop-color="#FFA64B"/><stop offset=".9" stop-color="#FFAE46" stop-opacity="0"/></radialGradient><radialGradient id="i" cx="0" cy="0" r="1" gradientTransform="rotate(43.971 -9.827 29.173)scale(59.0529)" gradientUnits="userSpaceOnUse"><stop offset=".185" stop-opacity="0"/><stop offset="1" stop-opacity=".4"/></radialGradient><radialGradient id="k" cx="0" cy="0" r="1" gradientTransform="matrix(-2.62502 7.125 -9.31237 -3.4309 9.781 13.438)" gradientUnits="userSpaceOnUse"><stop stop-color="#9F5E0F"/><stop offset=".889" stop-color="#9F5E0F" stop-opacity="0"/></radialGradient><radialGradient id="l" cx="0" cy="0" r="1" gradientTransform="matrix(-2.62502 7.125 -9.31237 -3.4309 9.781 13.438)" gradientUnits="userSpaceOnUse"><stop stop-color="#9F5E0F"/><stop offset=".889" stop-color="#9F5E0F" stop-opacity="0"/></radialGradient><radialGradient id="p" cx="0" cy="0" r="1" gradientTransform="rotate(-135.995 17.543 4.798)scale(13.3597 17.4611)" gradientUnits="userSpaceOnUse"><stop stop-color="#E9830A"/><stop offset=".802" stop-color="#F08B13" stop-opacity="0"/></radialGradient><radialGradient id="q" cx="0" cy="0" r="1" gradientTransform="rotate(-135.995 17.543 4.798)scale(13.3597 17.4611)" gradientUnits="userSpaceOnUse"><stop stop-color="#E9830A"/><stop offset=".802" stop-color="#F08B13" stop-opacity="0"/></radialGradient><radialGradient id="u" cx="0" cy="0" r="1" gradientTransform="matrix(2.5 3.5 -3.5 2.5 7 7)" gradientUnits="userSpaceOnUse"><stop offset=".542" stop-color="#493032"/><stop offset=".807" stop-color="#5E445A"/><stop offset=".955" stop-color="#4A2C42"/></radialGradient><radialGradient id="v" cx="0" cy="0" r="1" gradientTransform="rotate(125.538 10.699 9.933)scale(4.30116)" gradientUnits="userSpaceOnUse"><stop stop-color="#C2B4B5"/><stop offset=".887" stop-color="#462B45"/><stop offset="1" stop-color="#4A2C42"/></radialGradient><linearGradient id="m" x1="10.578" x2="8" y1="19.732" y2="14.388" gradientUnits="userSpaceOnUse"><stop offset=".25" stop-color="#482641"/><stop offset=".406" stop-color="#503A4A"/><stop offset=".511" stop-color="#482641"/></linearGradient><linearGradient id="n" x1="8.86" x2="11.25" y1="16.139" y2="11.451" gradientUnits="userSpaceOnUse"><stop offset=".25" stop-color="#482641"/><stop offset=".406" stop-color="#503A4A"/><stop offset=".511" stop-color="#482641"/></linearGradient><linearGradient id="r" x1="21.406" x2="23.985" y1="19.732" y2="14.388" gradientUnits="userSpaceOnUse"><stop offset=".25" stop-color="#482641"/><stop offset=".406" stop-color="#503A4A"/><stop offset=".511" stop-color="#482641"/></linearGradient><linearGradient id="s" x1="23.125" x2="20.734" y1="16.139" y2="11.451" gradientUnits="userSpaceOnUse"><stop offset=".25" stop-color="#482641"/><stop offset=".406" stop-color="#503A4A"/><stop offset=".511" stop-color="#482641"/></linearGradient><linearGradient id="t" x1="9.5" x2="9.5" y1="7" y2="8.5" gradientUnits="userSpaceOnUse"><stop offset=".03" stop-color="#524049"/><stop offset="1" stop-color="#4A2C42"/></linearGradient><linearGradient id="w" x1="16" x2="16" y1="20" y2="22" gradientUnits="userSpaceOnUse"><stop stop-color="#4F3C43"/><stop offset="1" stop-color="#512756"/></linearGradient><filter id="j" width="7" height="6.996" x="7.5" y="12.938" color-interpolation-filters="sRGB" filterUnits="userSpaceOnUse"><feFlood flood-opacity="0" result="BackgroundImageFix"/><feBlend in="SourceGraphic" in2="BackgroundImageFix" result="shape"/><feGaussianBlur result="effect1_foregroundBlur_31_1666" stdDeviation=".25"/></filter><filter id="o" width="7" height="6.996" x="16.906" y="12.938" color-interpolation-filters="sRGB" filterUnits="userSpaceOnUse"><feFlood flood-opacity="0" result="BackgroundImageFix"/><feBlend in="SourceGraphic" in2="BackgroundImageFix" result="shape"/><feGaussianBlur result="effect1_foregroundBlur_31_1666" stdDeviation=".25"/></filter><clipPath id="a"><path fill="#fff" d="M0 0h32v32H0z"/></clipPath></defs></svg>
